X: 39
T:Maid of the Mill, Bledington 2
M:6/8
L:1/8
A:Bledington
P:(A(AB)4
K:G
P:A
|:D|D2G GFG |ABc B2A|GFE DEF|G3 G2:|
P:B
|:B/c/|d2d d>cB|cAB c2c|ABc dBA|G3 F2D|
D2G GFG |ABc B2A|GFE DEF|G3 G2:|
